style-guide/assets/wds-icons-bold.svg

<svg viewBox="0 0 24 24" xmlns="http://www.w3.org/2000/svg">
  <path d="M6 10h4c2.206 0 4-1.795 4-4s-1.794-4-4-4H6v8zm0 12h7c2.757 0 5-2.243 5-5s-2.243-5-5-5H6v10zm7 2H5a1 1 0 0 1-1-1V1a1 1 0 0 1 1-1h5c3.309 0 6 2.691 6 6a5.982 5.982 0 0 1-1.652 4.131C17.565 10.76 20 13.602 20 17c0 3.859-3.14 7-7 7z"/>
</svg>

<svg xmlns="http://www.w3.org/2000/svg" xmlns:xlink="http://www.w3.org/1999/xlink" width="24" height="24" viewBox="0 0 24 24">
  <defs>
    <path id="bold-a" d="M6,10 L10,10 C12.206,10 14,8.205 14,6 C14,3.795 12.206,2 10,2 L6,2 L6,10 Z M6,22 L13,22 C15.757,22 18,19.757 18,17 C18,14.243 15.757,12 13,12 L6,12 L6,22 Z M13,24 L5,24 C4.448,24 4,23.553 4,23 L4,1 C4,0.447 4.448,0 5,0 L10,0 C13.309,0 16,2.691 16,6 C16,7.599 15.371,9.054 14.348,10.131 C17.565,10.76 20,13.602 20,17 C20,20.859 16.86,24 13,24 Z"/>
  </defs>
  <use fill-rule="evenodd" xlink:href="#bold-a"/>
</svg>
